dist/media/discordlogo.svg

<?xml version="1.0" encoding="UTF-8"?>
<!-- Generator: Adobe Illustrator 19.0.0, SVG Export Plug-In . SVG Version: 6.00 Build 0)  -->
<svg width="130" height="36" viewBox="0 0 130 36" fill="none" xmlns="http://www.w3.org/2000/svg">
    <style type="text/css">
        .st0 {
            fill: #FFFFFF;
        }
    </style>
    <path class="st0"
        d="M27.5247 8.06243C25.4213 7.09894 23.1723 6.39869 20.8211 6C20.5323 6.51114 20.195 7.19861 19.9624 7.74553C17.4629 7.37751 14.9865 7.37751 12.5331 7.74553C12.3005 7.19861 11.9554 6.51114 11.6641 6C9.31034 6.39869 7.05877 7.1015 4.95546 8.06754C0.713009 14.3443 -0.437046 20.4652 0.137982 26.4991C2.95179 28.5565 5.67868 29.8062 8.35961 30.624C9.02151 29.732 9.61189 28.7839 10.1205 27.7846C9.15188 27.4243 8.22416 26.9796 7.34756 26.4633C7.58015 26.2947 7.80757 26.1183 8.02735 25.9368C13.3739 28.3852 19.1829 28.3852 24.4655 25.9368C24.6879 26.1183 24.9153 26.2947 25.1453 26.4633C24.2662 26.9821 23.3359 27.4268 22.3673 27.7872C22.8759 28.7839 23.4637 29.7346 24.1282 30.6265C26.8116 29.8087 29.5411 28.559 32.3549 26.4991C33.0296 19.5042 31.2023 13.4396 27.5247 8.06243ZM10.8488 22.7883C9.2439 22.7883 7.92769 21.3213 7.92769 19.5349C7.92769 17.7485 9.21576 16.279 10.8488 16.279C12.4819 16.279 13.7981 17.7459 13.77 19.5349C13.7725 21.3213 12.4819 22.7883 10.8488 22.7883ZM21.644 22.7883C20.0391 22.7883 18.7229 21.3213 18.7229 19.5349C18.7229 17.7485 20.011 16.279 21.644 16.279C23.2771 16.279 24.5933 17.7459 24.5652 19.5349C24.5652 21.3213 23.2771 22.7883 21.644 22.7883Z" />
    <path class="st0"
        d="M43.6636 12.2823H50.6407C52.3224 12.2823 53.7432 12.5455 54.9087 13.0694C56.0716 13.5934 56.9431 14.3243 57.5206 15.2596C58.098 16.195 58.3895 17.2658 58.3895 18.4721C58.3895 19.6529 58.088 20.7237 57.4849 21.6821C56.8818 22.643 55.9641 23.4021 54.7297 23.9618C53.4954 24.5214 51.967 24.8026 50.1396 24.8026H43.6636V12.2823ZM50.0683 21.6208C51.2001 21.6208 52.0716 21.3371 52.6802 20.7723C53.2883 20.2049 53.5924 19.4331 53.5924 18.4543C53.5924 17.547 53.3215 16.8237 52.7797 16.2819C52.2379 15.7401 51.4177 15.4667 50.3211 15.4667H48.1386V21.6208H50.0683Z" />
    <path class="st0"
        d="M68.8346 24.7872C67.8686 24.5367 66.9971 24.1738 66.2227 23.6959V20.7262C66.8082 21.1786 67.5927 21.5517 68.5768 21.8456C69.5603 22.137 70.5112 22.2826 71.4314 22.2826C71.8606 22.2826 72.1853 22.2264 72.4049 22.1139C72.6245 22.0015 72.7346 21.8661 72.7346 21.7102C72.7346 21.5312 72.6758 21.383 72.5557 21.2629C72.4356 21.1428 72.2029 21.0431 71.8581 20.9588L69.7111 20.4758C68.4818 20.1895 67.6103 19.7934 67.0916 19.2848C66.573 18.7788 66.3146 18.1143 66.3146 17.2914C66.3146 16.5988 66.5398 15.9982 66.9946 15.4845C67.4469 14.9708 68.0908 14.5747 68.9266 14.2961C69.7623 14.015 70.7389 13.8745 71.8606 13.8745C72.8623 13.8745 73.78 13.9818 74.6158 14.1965C75.4511 14.4111 76.1411 14.6846 76.6909 15.0194V17.8281C76.1286 17.4933 75.4848 17.23 74.7485 17.0307C74.0152 16.8339 73.2608 16.7368 72.4843 16.7368C71.3621 16.7368 70.8027 16.9285 70.8027 17.3093C70.8027 17.4882 70.8896 17.6211 71.063 17.7105C71.2369 17.8 71.5566 17.8919 72.0189 17.9891L73.8081 18.3111C74.9761 18.513 75.8476 18.8683 76.4201 19.3743C76.9925 19.8803 77.2785 20.6291 77.2785 21.6207C77.2785 22.7069 76.806 23.5681 75.8577 24.207C74.9093 24.846 73.5654 25.1654 71.8224 25.1654C70.7972 25.1629 69.8005 25.0377 68.8346 24.7872Z" />
    <path class="st0"
        d="M81.5008 24.4114C80.4761 23.9105 79.7016 23.2307 79.1854 22.372C78.6693 21.5133 78.4084 20.5472 78.4084 19.4738C78.4084 18.4005 78.6768 17.4395 79.2136 16.5936C79.7503 15.7476 80.5374 15.0832 81.5752 14.6001C82.6125 14.1172 83.8519 13.8769 85.2963 13.8769C87.085 13.8769 88.5702 14.2526 89.7507 15.004V18.2778C89.3341 17.9916 88.8486 17.759 88.2937 17.5801C87.7394 17.4012 87.1463 17.3117 86.5126 17.3117C85.4034 17.3117 84.5369 17.5136 83.9107 17.92C83.285 18.3263 82.9704 18.8554 82.9704 19.5122C82.9704 20.1562 83.2745 20.6827 83.8831 21.0967C84.4912 21.5082 85.3727 21.7152 86.5307 21.7152C87.1257 21.7152 87.7138 21.6283 88.2937 21.4571C88.8717 21.2833 89.3698 21.0711 89.7864 20.8207V23.9872C88.4752 24.7743 86.9549 25.1679 85.2245 25.1679C83.768 25.1628 82.5256 24.9123 81.5008 24.4114Z" />
    <path class="st0"
        d="M94.2132 24.4116C93.1804 23.9107 92.3934 23.2258 91.8516 22.3543C91.3098 21.4828 91.0364 20.5117 91.0364 19.4383C91.0364 18.3649 91.3073 17.4065 91.8516 16.5657C92.3959 15.7249 93.1779 15.0655 94.2052 14.5876C95.2299 14.1097 96.4542 13.872 97.8725 13.872C99.2913 13.872 100.515 14.1097 101.54 14.5876C102.565 15.0655 103.347 15.7198 103.884 16.5554C104.42 17.3912 104.689 18.3496 104.689 19.4357C104.689 20.5091 104.42 21.4803 103.884 22.3517C103.347 23.2233 102.563 23.9082 101.53 24.4091C100.497 24.91 99.2782 25.1605 97.87 25.1605C96.4618 25.1605 95.243 24.9125 94.2132 24.4116ZM99.6491 21.2375C100.083 20.803 100.303 20.228 100.303 19.5124C100.303 18.7968 100.086 18.2269 99.6491 17.8052C99.2144 17.3809 98.6213 17.1688 97.87 17.1688C97.1061 17.1688 96.508 17.3809 96.0708 17.8052C95.6365 18.2294 95.4194 18.7968 95.4194 19.5124C95.4194 20.228 95.6365 20.803 96.0708 21.2375C96.5055 21.6719 97.1061 21.8917 97.87 21.8917C98.6213 21.8892 99.2144 21.6719 99.6491 21.2375Z" />
    <path class="st0"
        d="M115.438 14.5364V18.4006C114.983 18.1016 114.395 17.9533 113.666 17.9533C112.714 17.9533 111.977 18.2421 111.466 18.8198C110.953 19.3973 110.697 20.2969 110.697 21.5134V24.8052H106.314V14.3396H110.608V17.6671C110.845 16.4506 111.231 15.5536 111.763 14.9734C112.292 14.3959 112.977 14.1071 113.81 14.1071C114.441 14.1071 114.983 14.2502 115.438 14.5364Z" />
    <path class="st0"
        d="M130 11.9245V24.8051H125.617V22.4615C125.247 23.3433 124.684 24.0154 123.928 24.4754C123.171 24.9329 122.236 25.1629 121.126 25.1629C120.135 25.1629 119.271 24.9227 118.533 24.4397C117.794 23.9566 117.224 23.2947 116.823 22.4539C116.424 21.6131 116.222 20.6624 116.222 19.5992C116.21 18.5028 116.422 17.5189 116.858 16.6474C117.293 15.7759 117.909 15.0961 118.701 14.6079C119.494 14.1198 120.398 13.8745 121.413 13.8745C123.501 13.8745 124.901 14.7817 125.617 16.5937V11.9245H130ZM124.963 21.1658C125.41 20.7314 125.632 20.1666 125.632 19.4765C125.632 18.8095 125.415 18.2651 124.981 17.8485C124.546 17.432 123.95 17.2224 123.202 17.2224C122.463 17.2224 121.873 17.4346 121.431 17.8588C120.989 18.283 120.769 18.8325 120.769 19.5123C120.769 20.1921 120.989 20.7467 121.431 21.176C121.873 21.6054 122.456 21.8201 123.184 21.8201C123.922 21.8175 124.515 21.6003 124.963 21.1658Z" />
    <path class="st0"
        d="M62.0824 15.4539C63.2891 15.4539 64.2677 14.5752 64.2677 13.4912C64.2677 12.4072 63.2891 11.5284 62.0824 11.5284C60.8757 11.5284 59.8972 12.4072 59.8972 13.4912C59.8972 14.5752 60.8757 15.4539 62.0824 15.4539Z" />
    <path class="st0" d="M59.8953 16.806C61.2346 17.3836 62.8957 17.4092 64.2657 16.806V24.8615H59.8953V16.806Z" />
</svg>

<?xml version="1.0" encoding="UTF-8"?>
<svg width="130" height="36" fill="none" xmlns="http://www.w3.org/2000/svg">
    <!-- Generator: Adobe Illustrator 19.0.0, SVG Export Plug-In . SVG Version: 6.00 Build 0)  -->
    <style type="text/css">.st0{fill:#fff}</style>
    <path class="st0" d="M27.525 8.062A26.876 26.876 0 0020.82 6a19.06 19.06 0 00-.859 1.746 25.134 25.134 0 00-7.429 0A18.516 18.516 0 0011.664 6a26.783 26.783 0 00-6.709 2.068C.713 14.344-.437 20.465.138 26.499c2.814 2.058 5.54 3.307 8.222 4.125a19.952 19.952 0 001.76-2.84 17.466 17.466 0 01-2.772-1.32c.232-.17.46-.346.68-.527 5.346 2.448 11.155 2.448 16.438 0 .222.181.45.358.68.526-.88.52-1.81.964-2.779 1.324a19.856 19.856 0 001.761 2.84c2.684-.818 5.413-2.068 8.227-4.128.675-6.995-1.153-13.06-4.83-18.437zM10.849 22.788c-1.605 0-2.921-1.467-2.921-3.253 0-1.787 1.288-3.256 2.92-3.256 1.634 0 2.95 1.467 2.922 3.256.003 1.786-1.288 3.253-2.921 3.253zm10.795 0c-1.605 0-2.921-1.467-2.921-3.253 0-1.787 1.288-3.256 2.921-3.256 1.633 0 2.95 1.467 2.921 3.256 0 1.786-1.288 3.253-2.921 3.253zM43.664 12.282h6.977c1.681 0 3.102.264 4.268.787 1.163.524 2.034 1.255 2.612 2.19.577.936.868 2.007.868 3.213 0 1.18-.301 2.252-.904 3.21-.603.961-1.52 1.72-2.755 2.28-1.235.56-2.763.84-4.59.84h-6.476v-12.52zm6.404 9.339c1.132 0 2.004-.284 2.612-.849.608-.567.912-1.339.912-2.318 0-.907-.27-1.63-.812-2.172-.542-.542-1.362-.815-2.459-.815H48.14v6.154h1.93zM68.835 24.787a9.463 9.463 0 01-2.612-1.091v-2.97c.585.453 1.37.826 2.354 1.12.983.291 1.934.437 2.854.437.43 0 .754-.057.974-.17.22-.111.33-.247.33-.403a.605.605 0 00-.18-.447c-.12-.12-.352-.22-.697-.304l-2.147-.483c-1.23-.287-2.1-.683-2.62-1.191-.518-.506-.776-1.17-.776-1.994 0-.692.225-1.293.68-1.806.452-.514 1.096-.91 1.932-1.189.835-.281 1.812-.421 2.934-.421 1.001 0 1.919.107 2.755.322.835.214 1.525.488 2.075.822v2.81a7.701 7.701 0 00-1.942-.798 8.694 8.694 0 00-2.265-.294c-1.122 0-1.681.192-1.681.572 0 .18.087.312.26.401.174.09.494.182.956.28l1.79.321c1.167.202 2.039.557 2.611 1.063.573.506.858 1.255.858 2.247 0 1.086-.472 1.947-1.42 2.586-.949.639-2.293.958-4.036.958a11.974 11.974 0 01-2.987-.378zM81.5 24.411c-1.024-.5-1.798-1.18-2.315-2.039-.516-.859-.777-1.825-.777-2.898 0-1.073.269-2.035.806-2.88.536-.846 1.323-1.51 2.361-1.994 1.037-.483 2.277-.723 3.721-.723 1.789 0 3.274.376 4.455 1.127v3.274a5.58 5.58 0 00-1.457-.698 5.763 5.763 0 00-1.781-.268c-1.11 0-1.976.202-2.602.608-.626.406-.94.935-.94 1.592 0 .644.303 1.17.912 1.585.608.411 1.49.618 2.648.618a6.2 6.2 0 001.763-.258 6.567 6.567 0 001.492-.636v3.166c-1.31.787-2.831 1.18-4.561 1.18-1.457-.004-2.7-.255-3.724-.756zM94.213 24.412c-1.033-.501-1.82-1.186-2.361-2.058a5.411 5.411 0 01-.816-2.916c0-1.073.271-2.031.816-2.872.544-.841 1.326-1.5 2.353-1.978 1.025-.478 2.25-.716 3.668-.716 1.418 0 2.642.238 3.667.716s1.807 1.132 2.344 1.967c.536.836.805 1.795.805 2.88 0 1.074-.269 2.045-.805 2.917-.537.871-1.321 1.556-2.354 2.057-1.033.501-2.252.752-3.66.752-1.408 0-2.627-.248-3.657-.75zm5.436-3.174c.434-.435.654-1.01.654-1.726 0-.715-.217-1.285-.654-1.707-.435-.424-1.028-.636-1.779-.636-.764 0-1.362.212-1.8.636-.433.424-.65.992-.65 1.707 0 .716.216 1.291.65 1.726.436.434 1.036.654 1.8.654.751-.003 1.344-.22 1.78-.654zM115.438 14.536v3.865c-.455-.3-1.043-.448-1.772-.448-.952 0-1.689.29-2.2.867-.513.577-.769 1.477-.769 2.693v3.292h-4.383V14.34h4.294v3.327c.237-1.216.623-2.113 1.155-2.694.529-.577 1.214-.866 2.047-.866.631 0 1.173.143 1.628.43zM130 11.925v12.88h-4.383v-2.343c-.37.881-.933 1.553-1.689 2.013-.757.458-1.692.688-2.802.688-.991 0-1.855-.24-2.593-.723-.739-.483-1.309-1.145-1.71-1.986-.399-.84-.601-1.792-.601-2.855-.012-1.096.2-2.08.636-2.952a4.924 4.924 0 011.843-2.04c.793-.487 1.697-.732 2.712-.732 2.088 0 3.488.907 4.204 2.719v-4.67H130zm-5.037 9.24c.447-.434.669-.998.669-1.688 0-.668-.217-1.212-.651-1.628-.435-.417-1.031-.627-1.779-.627-.739 0-1.329.213-1.771.637-.442.424-.662.973-.662 1.653s.22 1.235.662 1.664c.442.43 1.025.644 1.753.644.738-.003 1.331-.22 1.779-.654zM62.082 15.454c1.207 0 2.186-.879 2.186-1.963s-.979-1.963-2.186-1.963c-1.206 0-2.185.88-2.185 1.963 0 1.084.979 1.963 2.185 1.963zM59.895 16.806c1.34.578 3 .603 4.37 0v8.055h-4.37v-8.055z"/>
    </svg>
